X:202
T:Miss Ramsay* (reel) 
T:Miss Ramsey
B:CRE2.288 (gan ainm)
F:file ID: cre.2/202miss_r
C:Nathaniel Gow
S:Jim Conlon 
N:(1) Spelled "Ramsey" in CRE3 (95). (2) CRE key signature (G) is incorrect.
L:1/8
M:C
R:reel
Q:180
K:D
DEFG ADFG|AddB AGFE|DEFG ADFA|(3Bcd AF EGFE|
DEFG ADFG|AddB AGFE|DEFG ADFA|(3Bcd AF E2E||
g|fddf edBc|d2dB ABdg|fddf edBA|(3Bcd AF E2Eg|
fddf edBc|d2dB ABdg|fdec dcBA|(3Bcd AF E2E2||

%%%

